X:1
T:Title
L:1/8
M:4/4
K:C
V:1 treble nm="Grand Piano"
V:1
 z4 z2 z[Q:1/4=100] E | GA/G/- G4- GE | GA/G/- G4- GG | GF/F/- F4- FF | GF/F/- F4- FF | %5
 FE/E/- E4- EE | GA/G/- G4- GE | GA/G/- G4- GG | GF/F/- F4- FF | GF/F/- F4- FF | FE/E/- E6- | %11
 E3 E EF/G/- Gd | cE/F/- F6- | F3 D DE/F/- FB | AG/G/- G6- | G3 E EF/G/- Gd | cE/F/- F6- | %17
 F3 D DE/F/- FB | AG/G/- G6- | G3 A AB/c/- cd | cB G6- | G3 F FG/A/- AA | GF/G/- G6- | %23
 G3 A AB/c/- cd | cB G6- | G3 A AB/c/- cc | Bc/d/- d4- d z |] %27

